static/assets/images/networks/bittorrent-chain.svg

<svg width="256" height="256" viewBox="0 0 256 256" fill="none" xmlns="http://www.w3.org/2000/svg">
<path d="M128 256C198.692 256 256 198.692 256 128C256 57.3075 198.692 0 128 0C57.3075 0 0 57.3075 0 128C0 198.692 57.3075 256 128 256Z" fill="black"/>
<path d="M221.944 108.312C220.679 102.166 218.808 96.1611 216.36 90.384C213.947 84.6937 210.995 79.2475 207.544 74.12C204.122 69.0543 200.218 64.331 195.888 60.016C191.57 55.6851 186.845 51.7816 181.776 48.36C176.641 44.9262 171.199 41.975 165.52 39.544C153.776 34.5629 141.149 31.9959 128.392 31.9959C115.635 31.9959 103.008 34.5629 91.264 39.544C79.9076 44.3341 69.5929 51.2903 60.896 60.024C56.5659 64.3365 52.6625 69.057 49.24 74.12C45.8058 79.2577 42.8546 84.7023 40.424 90.384C35.4429 102.128 32.8759 114.755 32.8759 127.512C32.8759 140.269 35.4429 152.896 40.424 164.64C42.776 170.32 45.816 175.704 49.24 180.896C52.6623 185.964 56.5657 190.69 60.896 195.008C65.2135 199.339 69.9395 203.242 75.008 206.664C80.096 210.088 85.584 213.032 91.264 215.48C103.008 220.461 115.635 223.028 128.392 223.028C141.149 223.028 153.776 220.461 165.52 215.48C171.2 213.128 176.584 210.088 181.776 206.664C186.845 203.242 191.57 199.339 195.888 195.008C200.219 190.69 204.122 185.965 207.544 180.896C210.968 175.808 213.912 170.32 216.36 164.64C223.896 146.866 225.844 127.22 221.944 108.312ZM128.48 211.072C82.344 211.072 45.024 173.648 45.024 127.608C45.024 81.568 82.448 44.144 128.48 44.144C174.52 44.144 211.944 81.568 211.944 127.608C211.944 173.648 174.528 211.072 128.48 211.072Z" fill="white"/>
<path d="M132.216 203.824C132.608 203.824 132.992 203.824 133.384 203.72H133.488C133.88 203.72 134.168 203.72 134.56 203.624H134.856C135.152 203.624 135.448 203.624 135.736 203.528H136.032C136.328 203.528 136.624 203.432 137.016 203.432H137.208C137.6 203.432 137.992 203.328 138.384 203.328C138.776 203.328 139.072 203.232 139.464 203.136H139.656C139.952 203.136 140.248 203.04 140.536 203.04H140.736C141.128 202.936 141.424 202.936 141.816 202.84C142.592 202.744 143.376 202.544 144.064 202.352H144.264C144.552 202.256 144.944 202.256 145.24 202.152H145.336C146.12 201.96 146.808 201.76 147.592 201.568C140.255 201.801 132.917 201.11 125.752 199.512C114.968 197.16 104.688 192.952 95.968 185.696C89.0935 179.975 83.5765 172.798 79.8159 164.683C76.0554 156.568 74.1454 147.719 74.224 138.776C74.2945 125.434 79.042 112.539 87.64 102.336C98.808 89.112 114.68 82.152 130.936 81.76H133.192V68.736H130.648C125.703 68.8266 120.779 69.4163 115.952 70.496C111.095 71.5944 106.367 73.2033 101.848 75.296C97.24 77.456 92.928 80.096 88.912 83.136C84.762 86.2906 80.9832 89.9057 77.648 93.912C74.5077 97.6198 71.7822 101.66 69.52 105.96C67.282 110.106 65.4752 114.47 64.128 118.984C62.8065 123.429 61.9223 127.992 61.488 132.608L61.192 136.912V139.456C61.288 144.456 61.88 149.352 62.952 154.152C64.032 159.056 65.696 163.752 67.752 168.264C70.208 173.648 74.616 181.584 81.176 187.56C94.5704 198.119 111.136 203.85 128.192 203.824H132.216Z" fill="white"/>
<path d="M151.312 191.28C146.48 191.107 141.668 190.583 136.912 189.712C116.736 186.088 99.392 173.744 93.032 155.136C85.288 132.504 97.144 108.016 119.672 100.576C123.965 99.1373 128.464 98.4077 132.992 98.416C138.776 98.416 144.552 99.592 149.848 101.744L155.328 90.088C153.68 89.4273 152.015 88.8084 150.336 88.232C144.723 86.4704 138.875 85.5775 132.992 85.584C127.098 85.595 121.245 86.554 115.656 88.424C108.523 90.7767 101.953 94.579 96.36 99.592C93.6624 101.995 91.2031 104.653 89.016 107.528C86.854 110.371 84.9832 113.423 83.432 116.64C80.2732 123.107 78.4089 130.13 77.944 137.312C77.456 144.752 78.432 152.192 80.88 159.248C83.3743 166.507 87.3829 173.152 92.64 178.744C97.44 183.936 103.024 187.856 109.776 191.48C116.832 195.2 125.552 197.16 134.656 198.44C140.536 199.216 148.376 199.416 152.976 199.416C156.992 197.944 158.656 197.256 160.816 196.376C162.68 195.496 164.536 194.616 166.4 193.536C168.264 192.456 168.56 192.256 171.688 190.208C171.967 190.035 172.229 189.837 172.472 189.616C161.696 191.48 158.952 191.376 151.312 191.28Z" fill="white"/>
<path d="M175.416 176.688C172.376 176.88 168.064 177.168 163.168 177.168C154.448 177.168 143.768 176.392 134.664 173.352C120.552 168.656 107.232 156.608 107.232 141.712C107.229 138.186 107.921 134.695 109.269 131.437C110.616 128.179 112.593 125.219 115.086 122.726C117.579 120.233 120.539 118.256 123.797 116.909C127.055 115.561 130.546 114.869 134.072 114.872C144.16 114.872 152.88 120.456 157.488 128.584L169.144 122.808C167.316 119.367 164.969 116.229 162.184 113.504C158.494 109.808 154.111 106.875 149.287 104.874C144.463 102.874 139.291 101.844 134.068 101.844C128.845 101.844 123.673 102.874 118.849 104.874C114.025 106.875 109.642 109.808 105.952 113.504C102.257 117.194 99.3255 121.576 97.3255 126.4C95.3254 131.223 94.296 136.394 94.296 141.616C94.3221 147.089 95.4939 152.495 97.736 157.488C99.784 161.992 102.632 166.208 106.256 170.128C112.624 176.976 121.336 182.464 130.648 185.6C139.56 188.536 152.688 189.616 165.424 188.736C168.944 188.44 171.592 188.144 176.096 187.168C180.442 183.738 184.388 179.828 187.856 175.512C184.816 175.808 179.232 176.392 175.416 176.688Z" fill="white"/>
</svg>

<svg xmlns="http://www.w3.org/2000/svg" fill="none" viewBox="0 0 256 256"><path fill="#000" d="M128 256c70.692 0 128-57.308 128-128S198.692 0 128 0 0 57.308 0 128s57.308 128 128 128"/><path fill="#fff" d="M221.944 108.312a95 95 0 0 0-5.584-17.928 97 97 0 0 0-8.816-16.264 95 95 0 0 0-11.656-14.104 95 95 0 0 0-14.112-11.656 100 100 0 0 0-16.256-8.816 95.1 95.1 0 0 0-74.256 0 94.9 94.9 0 0 0-30.368 20.48A95 95 0 0 0 49.24 74.12a100 100 0 0 0-8.816 16.264 95.1 95.1 0 0 0 0 74.256c2.352 5.68 5.392 11.064 8.816 16.256a95 95 0 0 0 11.656 14.112 95 95 0 0 0 14.112 11.656c5.088 3.424 10.576 6.368 16.256 8.816a95.1 95.1 0 0 0 74.256 0c5.68-2.352 11.064-5.392 16.256-8.816a95 95 0 0 0 14.112-11.656 95 95 0 0 0 11.656-14.112c3.424-5.088 6.368-10.576 8.816-16.256a95.1 95.1 0 0 0 5.584-56.328m-93.464 102.76c-46.136 0-83.456-37.424-83.456-83.464s37.424-83.464 83.456-83.464c46.04 0 83.464 37.424 83.464 83.464s-37.416 83.464-83.464 83.464"/><path fill="#fff" d="M132.216 203.824c.392 0 .776 0 1.168-.104h.104c.392 0 .68 0 1.072-.096h.296c.296 0 .592 0 .88-.096h.296c.296 0 .592-.096.984-.096h.192c.392 0 .784-.104 1.176-.104s.688-.096 1.08-.192h.192c.296 0 .592-.096.88-.096h.2c.392-.104.688-.104 1.08-.2.776-.096 1.56-.296 2.248-.488h.2c.288-.096.68-.096.976-.2h.096c.784-.192 1.472-.392 2.256-.584a87.6 87.6 0 0 1-21.84-2.056c-10.784-2.352-21.064-6.56-29.784-13.816a60.35 60.35 0 0 1-21.744-46.92 57.02 57.02 0 0 1 13.416-36.44c11.168-13.224 27.04-20.184 43.296-20.576h2.256V68.736h-2.544a73.4 73.4 0 0 0-14.696 1.76 70.7 70.7 0 0 0-14.104 4.8c-4.608 2.16-8.92 4.8-12.936 7.84a69 69 0 0 0-11.264 10.776 66.7 66.7 0 0 0-8.128 12.048 69 69 0 0 0-5.392 13.024 71 71 0 0 0-2.64 13.624l-.296 4.304v2.544c.096 5 .688 9.896 1.76 14.696 1.08 4.904 2.744 9.6 4.8 14.112 2.456 5.384 6.864 13.32 13.424 19.296a75.76 75.76 0 0 0 47.016 16.264z"/><path fill="#fff" d="M151.312 191.28a100 100 0 0 1-14.4-1.568c-20.176-3.624-37.52-15.968-43.88-34.576-7.744-22.632 4.112-47.12 26.64-54.56a41.7 41.7 0 0 1 13.32-2.16c5.784 0 11.56 1.176 16.856 3.328l5.48-11.656q-2.473-.991-4.992-1.856a57.7 57.7 0 0 0-17.344-2.648 55 55 0 0 0-17.336 2.84A54.5 54.5 0 0 0 96.36 99.592a56 56 0 0 0-7.344 7.936 53.3 53.3 0 0 0-5.584 9.112 55.2 55.2 0 0 0-5.488 20.672c-.488 7.44.488 14.88 2.936 21.936a54.2 54.2 0 0 0 11.76 19.496c4.8 5.192 10.384 9.112 17.136 12.736 7.056 3.72 15.776 5.68 24.88 6.96 5.88.776 13.72.976 18.32.976 4.016-1.472 5.68-2.16 7.84-3.04 1.864-.88 3.72-1.76 5.584-2.84s2.16-1.28 5.288-3.328q.419-.26.784-.592c-10.776 1.864-13.52 1.76-21.16 1.664"/><path fill="#fff" d="M175.416 176.688c-3.04.192-7.352.48-12.248.48-8.72 0-19.4-.776-28.504-3.816-14.112-4.696-27.432-16.744-27.432-31.64a26.81 26.81 0 0 1 16.565-24.803 26.8 26.8 0 0 1 10.275-2.037c10.088 0 18.808 5.584 23.416 13.712l11.656-5.776a37.9 37.9 0 0 0-6.96-9.304 39.7 39.7 0 0 0-12.897-8.63 39.74 39.74 0 0 0-30.438 0 39.7 39.7 0 0 0-12.897 8.63 39.73 39.73 0 0 0-11.656 28.112 39.2 39.2 0 0 0 3.44 15.872c2.048 4.504 4.896 8.72 8.52 12.64 6.368 6.848 15.08 12.336 24.392 15.472 8.912 2.936 22.04 4.016 34.776 3.136 3.52-.296 6.168-.592 10.672-1.568a73.5 73.5 0 0 0 11.76-11.656c-3.04.296-8.624.88-12.44 1.176"/></svg>
